assets/notion-icon.svg

<svg fill="none" height="41" viewBox="0 0 41 41" width="41" xmlns="http://www.w3.org/2000/svg" xmlns:xlink="http://www.w3.org/1999/xlink"><clipPath id="a"><path d="m10.5 10.5h21v21h-21z"/></clipPath><rect fill="#131117" height="40" rx="20" width="40" x=".5" y=".5"/><g clip-path="url(#a)"><path d="m11.7636 11.4057 11.6199-.8582c1.4274-.1225 1.794-.0399 2.6916.6125l3.7092 2.6131c.6117.4494.8154.5718.8154 1.0611v14.331c0 .8982-.3261 1.4295-1.4679 1.5106l-13.4937.8173c-.8568.0405-1.2649-.0819-1.7136-.6538l-2.7315-3.5519c-.4899-.6537-.693-1.143-.693-1.7151v-12.7386c0-.7343.3261-1.3467 1.2636-1.428z" fill="#131117"/><path clip-rule="evenodd" d="m23.3835 10.5477-11.6199.8582c-.9375.0811-1.2636.6937-1.2636 1.4278v12.7386c0 .5719.2031 1.0612.693 1.7151l2.7315 3.5517c.4487.5719.8568.6945 1.7136.6538l13.4939-.8169c1.141-.0813 1.4679-.6126 1.4679-1.5106v-14.331c0-.4641-.1833-.5979-.723-.9939l-3.8018-2.6805c-.8974-.6524-1.2642-.735-2.6916-.6125zm-7.4403 4.0521c-1.1019.0742-1.3518.091-1.9776-.4179l-1.5909-1.2654c-.1617-.1638-.0805-.3682.3269-.4089l11.1706-.8163c.938-.0819 1.4265.2451 1.7934.5307l1.9158 1.3881c.0819.0414.2856.2856.0405.2856l-11.5359.6945-.1428.0098zm-1.2846 14.4432v-12.1659c0-.5313.1632-.7764.6517-.8176l13.2497-.7757c.4494-.0405.6525.2451.6525.7755v12.0849c0 .5313-.0819.9807-.8155 1.0212l-12.6791.735c-.7336.0406-1.0591-.2037-1.0591-.8574zm12.516-11.5137c.0813.3675 0 .735-.3675.777l-.6111.1212v8.9823c-.5306.2856-1.0191.4488-1.4273.4488-.6525 0-.8155-.2043-1.3041-.8163l-3.9963-6.2874v6.0831l1.2642.2862s0 .735-1.02.735l-2.8119.1632c-.0819-.1638 0-.5718.285-.6531l.7343-.2037v-8.043l-1.0191-.0825c-.0819-.3675.1218-.8982.693-.9394l3.0171-.203 4.158 6.3686v-5.6343l-1.0599-.1218c-.0819-.45.2442-.777.6516-.8169l2.814-.1638z" fill="#f5f5f5" fill-rule="evenodd"/></g></svg>

<svg width="41" height="41" viewBox="0 0 41 41" fill="none" xmlns="http://www.w3.org/2000/svg">
<rect x="0.5" y="0.5" width="40" height="40" rx="20" fill="#131117"/>
<g clip-path="url(#clip0_1993_89)">
<path d="M11.7636 11.4057L23.3835 10.5475C24.8109 10.425 25.1775 10.5076 26.0751 11.16L29.7843 13.7731C30.396 14.2225 30.5997 14.3449 30.5997 14.8342V29.1652C30.5997 30.0634 30.2736 30.5947 29.1318 30.6758L15.6381 31.4931C14.7813 31.5336 14.3732 31.4112 13.9245 30.8393L11.193 27.2874C10.7031 26.6337 10.5 26.1444 10.5 25.5723V12.8337C10.5 12.0994 10.8261 11.487 11.7636 11.4057Z" fill="#131117"/>
<path fill-rule="evenodd" clip-rule="evenodd" d="M23.3835 10.5477L11.7636 11.4059C10.8261 11.487 10.5 12.0996 10.5 12.8337V25.5723C10.5 26.1442 10.7031 26.6335 11.193 27.2874L13.9245 30.8391C14.3732 31.411 14.7813 31.5336 15.6381 31.4929L29.132 30.676C30.273 30.5947 30.5999 30.0634 30.5999 29.1654V14.8344C30.5999 14.3703 30.4166 14.2365 29.8769 13.8405L26.0751 11.16C25.1777 10.5076 24.8109 10.425 23.3835 10.5475V10.5477ZM15.9432 14.5998C14.8413 14.674 14.5914 14.6908 13.9656 14.1819L12.3747 12.9165C12.213 12.7527 12.2942 12.5483 12.7016 12.5076L23.8722 11.6913C24.8102 11.6094 25.2987 11.9364 25.6656 12.222L27.5814 13.6101C27.6633 13.6515 27.867 13.8957 27.6219 13.8957L16.086 14.5902L15.9432 14.6V14.5998ZM14.6586 29.043V16.8771C14.6586 16.3458 14.8218 16.1007 15.3103 16.0595L28.56 15.2838C29.0094 15.2433 29.2125 15.5289 29.2125 16.0593V28.1442C29.2125 28.6755 29.1306 29.1249 28.397 29.1654L15.7179 29.9004C14.9843 29.941 14.6588 29.6967 14.6588 29.043H14.6586ZM27.1746 17.5293C27.2559 17.8968 27.1746 18.2643 26.8071 18.3063L26.196 18.4275V27.4098C25.6654 27.6954 25.1769 27.8586 24.7687 27.8586C24.1162 27.8586 23.9532 27.6543 23.4646 27.0423L19.4683 20.7549V26.838L20.7325 27.1242C20.7325 27.1242 20.7325 27.8592 19.7125 27.8592L16.9006 28.0224C16.8187 27.8586 16.9006 27.4506 17.1856 27.3693L17.9199 27.1656V19.1226L16.9008 19.0401C16.8189 18.6726 17.0226 18.1419 17.5938 18.1007L20.6109 17.8977L24.7689 24.2663V18.632L23.709 18.5102C23.6271 18.0602 23.9532 17.7332 24.3606 17.6933L27.1746 17.5295V17.5293Z" fill="#F5F5F5"/>
</g>
<defs>
<clipPath id="clip0_1993_89">
<rect width="21" height="21" fill="white" transform="translate(10.5 10.5)"/>
</clipPath>
</defs>
</svg>
